X:1
T:Title
%%score { ( 1 4 ) | ( 2 3 ) } { ( 5 8 ) | ( 6 7 ) }
L:1/8
Q:1/4=119
M:2/4
K:Db
V:1 treble nm="Grand Piano"
V:4 treble 
V:2 bass 
V:3 bass 
V:5 treble nm="Grand Piano"
V:8 treble 
V:6 bass 
V:7 bass 
V:1
 z2 (3:2:2[FA]2 G | FF FF/G/ | [DFA][DGB] [DFA][_CD] | [Gd][Gd] [Gd].[CGc] | %4
 [DGB][DFA] [DFA][A,DF] | [A,EG][A,EG] [A,EG][A,CA] | [A,DF][A,EA] (3:2:2[Fd]2 [Fd] | %7
 cc/d/ [Ee][Fd] | [Ec][DB] (3:2:2[CA]2 A | d4 | c3 .[EG] | [CGB][CGB] [CGB][CGc] | %12
 .[DFA]2 z [A,DF] | [DE]E E.[A,EA] | e4 | [Ec]2 [DB]2 | [CA]2 z A | d4 | c3 .[EG] | %19
 [CGB][CGB] [CGB][CGc] | .[DFA]2 z A | dA FD | EF GB | A2 e2 | [Fd]4- | [Fd]2 z2 |] %26
V:2
 z2 (3:2:2z2 E | [D,A,D][D,A,D] [D,A,D]D/E/ | D,D, D,D, | [D,B,][D,B,] [D,B,] z/[K:treble] B/ | %4
 D,D, D,D, | C,C, C,A,, | D,C, (3:2:2[B,,B,]2 [B,,A,] | [E,A,E][E,A,E] [C,A,][D,A,] | %8
 [E,A,][E,=G,] (3:2:2[A,,E,A,]2[K:treble] G | F4[K:bass][K:treble] | z[K:bass] E, E, z/ F/ | %11
 A,,A,, A,,A,, | z C B,D, | z D D z/[K:treble] c/ | [C,A,]C, [D,A,][D,A,] | [E,A,]2 [E,=G,]2 | %16
 [A,,E,A,]2 z[K:treble] G | F4[K:bass][K:treble] | z[K:bass] E, E, z/ F/ | A,,A,, A,,A,, | %20
 z C B,A, | DA, F,D, | E,F, G,B, | A,2 [A,,A,CG]2 | [D,A,D]4- | [D,A,D]2 z2 |] %26
V:3
 z2 [D,A,]2 | z2 z [D,A,] | x4 | z2 z D,[K:treble] | x4 | x4 | x4 | x4 | x10/3[K:treble] x2/3 | %9
 z[K:bass] D, D,[K:treble]G | G3[K:bass] A,, | x4 | D,2 z2 | [B,,=G,]3 C,[K:treble] | x4 | x4 | %16
 x3[K:treble] x | z[K:bass] D, D,[K:treble]G | G3[K:bass] A,, | x4 | D,2 z2 | x4 | x4 | x4 | x4 | %25
 x4 |] %26
V:4
 x4 | x4 | x4 | x4 | x4 | x4 | x4 | x4 | x4 | z A, A,e | z A, A,C/-[CA]/ | x4 | x4 | x4 | %14
 E-[A,E] F[Fd] | x4 | x4 | z A, A,e | z A, A,C/-[CA]/ | x4 | x4 | x4 | x4 | x4 | x4 | x4 |] %26
V:5
 z2 (3:2:2[FA]2 G | FF FF/G/ | [DFA][DGB] [DFA][_CD] | [Gd][Gd] [Gd].[CGc] | %4
 [DGB][DFA] [DFA][A,DF] | [A,EG][A,EG] [A,EG][A,CA] | [A,DF][A,EA] (3:2:2[Fd]2 [Fd] | %7
 cc/d/ [Ee][Fd] | [Ec][DB] (3:2:2[CA]2 [GA] | z [FA] [FA][Ee] | z [GA] [GA]G/A/ | B4 | %12
 z [DF] [DF]F | z D [=G,D]A/c/ | e4 | c2 B2 | [CA]=G/A/ Bc | z [FA] [FA][Ee] | z [GA] [GA]G/A/ | %19
 B4 | [A,A]2 [DF]F | dA FD | EF GB | A2 [Gce]2 | [Fd]4- | [Fd]2 z2 |] %26
V:6
 z2 (3:2:2z2 E | [D,A,D][D,A,D] [D,A,D]D/E/ | D,D, D,D, | [D,B,][D,B,] [D,B,] z/[K:treble] B/ | %4
 D,D, D,D, | C,C, C,A,, | D,C, (3:2:2[B,,B,]2 [B,,A,] | [E,A,E][E,A,E] [C,A,][D,A,] | %8
 [E,A,][E,=G,] .[A,,E,A,]2 | [D,,D,]2 [A,,,A,,]2 | [E,,E,]2 [A,,,A,,]2 | z C [A,,,A,,]2 | %12
 [D,,D,]2 [A,,,A,,]2 | z =G, .[B,,,B,,]2 | z E [D,,D,]2 | z E z [DE] | .[A,,,A,,]2[K:treble] =G_G | %17
 [D,,D,]2 [A,,,A,,]2 | [E,,E,]2 [A,,,A,,]2 | z C [A,,,A,,]2 | [D,,D,]2 [A,,,A,,][A,D] | DA, F,D, | %22
 E,F, G,B, | A,2 [A,,A,]2 | [D,A,]4- | [D,A,]2 z2 |] %26
V:7
 z2 [D,A,]2 | z2 z [D,A,] | x4 | z2 z D,[K:treble] | x4 | x4 | x4 | x4 | x4 | x4 | x4 | %11
 [E,,E,]2 z2 | x4 | [B,,,B,,]2 z2 | [C,,C,]2 z2 | [E,,E,]2 [E,,E,]2 | x2[K:treble] x2 | x4 | x4 | %19
 [E,,E,]2 z2 | x4 | x4 | x4 | x4 | x4 | x4 |] %26
V:8
 x4 | x4 | x4 | x4 | x4 | x4 | x4 | x4 | x4 | [Dd]4 | [Cc]4 | z G [CG]c | [A,A]2 z2 | E4 | %14
 z A [FA]-[FAd] | z A z =G | x4 | [Dd]4 | [Cc]4 | z G [CG]c | x4 | x4 | x4 | x4 | x4 | x4 |] %26

